X:1
T:Danse Macabre
T:Danse Macabre
T:Camile Saint-Saens
C:Camile Saint-Saens
%%score 1 2 3
L:1/8
M:3/4
K:Bb
V:1 treble nm="Violín" snm="Vln."
V:2 treble nm="Violín" snm="Vln."
V:3 bass nm="Violonchelo" snm="Vc."
V:1
 z6 | z6 | z6 | z6 |"^arco" e6 | A6 | e6 | A4 A2 | .e.e .e2 A z | .e.e .e2 A z | e2 A2 e2 | %11
 A2 e2 z2 | G,2 G,B, G,A, | B,2 A,B, G,B, | A,G, G,B, G,A, | B,2 A,B, G,B, | _A,2 A,C A,B, | %17
 C2 B,C _A,C | B,_A, A,C A,B, | C2 _A,C B,A, | G,2 .[DB]2 .G,2 | z2 .[DB]2 .G,2 | z2 .[DB]2 .G,2 | %23
 z2 .[DB]2 .G,2 | z2!p! .[Ec]2 ._A,2 | z2 .[Ec]2 ._A,2 | z2 .[Ec]2 ._A,2 | z2!p! .[Ec]2 ._A,2 | %28
 z4!f! D2 | G4 G2 | F4 F2 | =E4 =E2 | E4 E2 | D2 =E2 G2 | ^F2 =E2 D2 | =E4 =E2 | ^F2 z2 D2 | %37
 G4 G2 | F4 F2 | =E4 =E2 | E4 E2 | D2 G2 B2 | A2 ^F2 D2 | ^F4 =E2 | D2 z2 z2 | z6 | z6 | z6 | %48
 z2 GB GA | B2 EG EF | G2 B,E B,D | E2 EE EE | D2 z2 d2 | g2 z4 |] %54
V:2
 z6 | z6 | z6 | z6 |"^arco" A6 | D6 | A6 | D4 D2 | AA A2 D z | AA A2 D z | A2 D2 A2 | D2 A2 d2 | %12
 g2 D2 G,2 | z2 D2 G,2 | z2 D2 G,2 | z2 D2 G,2 | z2 E2 C2 | z2 E2 C2 | z2 E2 C2 | z2 E2 C2 | %20
 z2 GB GA | B2 AB GB | AG GB GA | B2 AB GB | _A2 _Ac AB | c2 Bc _Ac | B_A _Ac _AB | c2 _Ac B_A | %28
 G2 z4 | z2 D2 G,2 | z2 D2 G,2 | z2 D2 G,2 | z2 D2 G,2 | z2 =E2 C2 | z2 =E2 C2 | z2 =E2 C2 | %36
 z2 E2 C2 | z2 D2 G,2 | z2 D2 G,2 | z2 C2 G,2 | z2 D2 G,2 | z2 E2 B,2 | z2 D2 A,2 | z2 A,2 ^C2 | %44
 z2 D^F D=E | ^F2 =E^F D^F | =ED D^F D=E | ^F2 =E^F D^F | G2 B2 G2 | z2 B2 G2 | z2 G2 D2 | %51
 z2 E2 E2 | D2 z2 d2 | G2 z4 |] %54
V:3
"^pizz" D,2 z4 | D,2 z4 | D,2 z4 | D,2 z4 | z6 | z6 | z6 | z6 |"^arco" .D,.D, .D,2 D, z | %9
 .D,.D, .D,2 D, z | D,2 D,2 D,2 | D,2 D,2 D, z | G,,2 z4 | G,,2 z4 | G,,2 z4 | G,,2 z4 | F,,2 z4 | %17
 F,,2 z4 | F,,2 z4 | F,,2 z4 | G,2 D2 D2 | G,2 D2 D2 | G,2 D2 D2 | G,2 D2 D2 | F,2 E2 E2 | %25
 F,2 E2 E2 | F,2 E2 E2 | F,2 E2 E2 | G,2 B,2 z2 | G,,2 z4 | G,,2 z4 | G,,2 z4 | G,,2 z4 | G,,2 z4 | %34
 A,,2 z4 | A,,2 z4 | D,2 z4 | G,,2 z4 | G,,2 z4 | G,,2 z4 | G,,2 z4 | G,,2 z4 | A,,2 z4 | A,,2 z4 | %44
 D,2 ^F,2 ^F,2 | D,2 ^F,2 ^F,2 | D,2 ^F,2 ^F,2 | D,2 ^F,2 ^F,2 | C,2 z4 | C,2 z2 z2 | z6 | z6 | %52
 z2 z2 D,2 | G,,2 z4 |] %54

